X: 3
T: Le vieux moulin
M: C|
L: 1/8
R: reel
K: D
(3ABc |:\
"D"d2fd adfd | "A"c2ec fcec |\
"D"d2fd adfd | "Em7"efec "A"A2AB |\
"D"AFDF Addd | "G"BGDG BdcB |
"A"Acef (3gfe cA | "A7"dfec "D"d4 ::\
"D"A,4-A,2 "D7"D2 | "G"B,4-B,2 D2 |\
"A7"C3D E2C2 |[1,2 "D"D3E FE D2 :|[2,4 "D"D4- D2z2 :|


